X:1
T:Title
%%score { ( 1 3 ) | ( 2 4 ) } ( 5 6 )
L:1/8
M:4/4
K:Bb
V:1 treble nm="Grand Piano"
V:3 treble 
V:2 bass 
V:4 bass 
V:5 bass nm="Church Organ"
V:6 bass 
V:1
 z4 z2[Q:1/4=100] [DB]2 | z4 z2 .[B,G]2 | [DB]2 c2 d2 [Ff]>[FB] | [EA]3 [Ec] [DB]2 [Fd]2 | c6 dc | %5
 .[B,DB]2 [DB][EA] [EG]2 [FA][EG] | [DF]EDE [B,DF]2 [B,DF][B,DF] | [B,EG]2 F-[B,FB] [Fe]2 [Fd]2 | %8
 c6 f>e | d3 B BAGA |[M:3/4] [B,DB]6 |[M:1/4] d2 |[M:4/4] c3 d e2 dc | d2 c2 B2 d2 | cdcA B2 AG | %15
[M:3/4] G2 F4 |[M:1/4] FE |[M:4/4] DCDE [DF]2 [EG][EA] | [DB][CA][DB][Ec] [Fd]2 [Ff]>[Ge] | %19
 d3 B BAGA |[M:3/4] c2 [DB]4 |] %21
V:2
 z4 z2 [B,,F,]2 | [B,,F,]3 [B,,F,] z D z F, | %2
 [B,,F,]2[K:treble] [F,A,F]2 [B,F]2[K:bass] [D,B,]>[D,B,] | [C,F,]3 [A,,F,] [B,,F,]2 [B,,B,]2 | %4
 [F,A,F]6 FE | z[K:treble] c[K:bass] [B,,B,]2 [E,B,]2 [E,B,]2 | z CB,C B,,2 B,,B,, | %7
 E,2 E,D, [C,A,]2 [B,,B,]2 | [F,A,F]6 [A,CF]>[A,CF] | [B,F]3 [B,DF][K:bass] [F,CE]2 [F,CE]2 | %10
[M:3/4] B,,6 |[M:1/4][K:treble] B2 |[M:4/4] A3 B c2 BA | BF E2 D2 F2 | F2 F2 =E2 E2 | %15
[M:3/4] =E2 z2 z2 |[M:1/4][K:bass] [F,D][F,C] |[M:4/4] B,A,B,C [B,,B,]2 [B,,B,][B,,F,] | %18
 [B,,F,]2 [B,,F,]2 [B,,B,]2 [D,B,]>[E,B,] | [F,B,F]3 [F,B,D] [F,CE]2 [F,CE]2 | %20
[M:3/4] [F,A,E]2 [B,,B,]4 |] %21
V:3
 x8 | [B,D]3 [B,D] [CE]FE-[EA] | x8 | x8 | x8 | x8 | x8 | z2 .[CA]2 z4 | x8 | x8 |[M:3/4] x6 | %11
[M:1/4] x2 |[M:4/4] x8 | x8 | x8 |[M:3/4] x6 |[M:1/4] x2 |[M:4/4] x8 | x8 | x8 |[M:3/4] x6 |] %21
V:4
 x8 | z4 [B,,B,]2 B,,2 | x2[K:treble] x4[K:bass] x2 | x8 | z4 z2 [F,A,]2 | %5
 B,,2[K:treble][K:bass] z2 z4 | [B,,B,]2 [B,,F,]2 z4 | x8 | x8 | x4[K:bass] x4 |[M:3/4] x6 | %11
[M:1/4][K:treble] x2 |[M:4/4] x8 | x8 | x8 |[M:3/4] x6 |[M:1/4][K:bass] x2 | %17
[M:4/4] [B,,F,]2 [B,,F,]2 z4 | x8 | x8 |[M:3/4] x6 |] %21
V:5
 z8 | z8 | z8 | z8 | z8 | z8 | z8 | z8 | z8 | z8 |[M:3/4] z6 |[M:1/4] z2 |[M:4/4] F,CA,C F,CA,C | %13
 B,F,A,F, [B,,B,]2 [B,,B,]2 | A,B,A,C [C,C]2 CB, |[M:3/4] [C,B,]2 [F,A,]4 |[M:1/4] z2 |[M:4/4] z8 | %18
 z8 | z8 |[M:3/4] z6 |] %21
V:6
 x8 | x8 | x8 | x8 | x8 | x8 | x8 | x8 | x8 | x8 |[M:3/4] x6 |[M:1/4] x2 |[M:4/4] x8 | x8 | %14
 C,2 C,2 z2 C,2 |[M:3/4] x6 |[M:1/4] x2 |[M:4/4] x8 | x8 | x8 |[M:3/4] x6 |] %21

